dist/img/svg/vk.svg

<svg width="20" height="13" viewBox="0 0 20 13" fill="none" xmlns="http://www.w3.org/2000/svg">
<path fill-rule="evenodd" clip-rule="evenodd" d="M0.0390625 0.550781C0.197153 7.98254 3.9913 12.4487 10.6432 12.4487H11.0203V8.19692C13.4646 8.43511 15.3129 10.1859 16.0547 12.4487H19.5084C18.5599 9.06634 16.0668 7.19649 14.5103 6.4819C16.0668 5.60057 18.2558 3.45679 18.7787 0.550781H15.6411C14.9601 2.90894 12.9417 5.05271 11.0203 5.25518V0.550781H7.88269V8.79241C5.93697 8.31602 3.48055 6.0055 3.3711 0.550781H0.0390625Z" fill="currentColor"/>
</svg>

<svg width="20" height="13" viewBox="0 0 20 13" fill="none" xmlns="http://www.w3.org/2000/svg"><path fill-rule="evenodd" clip-rule="evenodd" d="M.04.55c.156 7.434 3.95 11.9 10.602 11.9h.377V8.197c2.445.238 4.293 1.989 5.035 4.252h3.453c-.948-3.383-3.441-5.253-4.998-5.967C16.067 5.6 18.256 3.457 18.78.55h-3.14c-.68 2.358-2.7 4.502-4.62 4.704V.551H7.882v8.241C5.937 8.316 3.48 6.005 3.37.551H.04z" fill="currentColor"/></svg>203 5.25518V0.550781H7.88269V8.79241C5.93697 8.31602 3.48055 6.0055 3.3711 0.550781H0.0390625Z" fill="currentColor"/>
</svg>
